X:105
T:Kishkeam Lasses, The
T:Rural Felicity
T:Joe Cooley's Delight
R:slide
H:See also #133, #134, #17
Z:id:hn-slide-105
M:6/8
L:1/8
K:D
d2d dcd | e2E EFG | ~A3 ABG | F2D DFA |
d2d dcd | e2E EFG | ABA GFE |1 D3 DFA :|2 D3 D2e ||
|: f2d Ade | faa agf | g2e Bcd | e2f gfe |
f2d Ade | faa agf | gec Ace |1 d3 d2e :|2 d2e f2e ||

